images/building.svg

<?xml version="1.0" encoding="UTF-8" standalone="no"?>
<svg width="14.991576" height="12.989938" version="1.1" id="svg2" sodipodi:docname="building.svg" inkscape:version="1.4.2 (ebf0e940d0, 2025-05-08)" xmlns:inkscape="http://www.inkscape.org/namespaces/inkscape" xmlns:sodipodi="http://sodipodi.sourceforge.net/DTD/sodipodi-0.dtd" xmlns="http://www.w3.org/2000/svg" xmlns:svg="http://www.w3.org/2000/svg">
  <defs id="defs2" />
  <sodipodi:namedview id="namedview2" pagecolor="#ffffff" bordercolor="#666666" borderopacity="1.0" inkscape:showpageshadow="2" inkscape:pageopacity="0.0" inkscape:pagecheckerboard="true" inkscape:deskcolor="#d1d1d1" showgrid="true" inkscape:zoom="38.220385" inkscape:cx="3.4013263" inkscape:cy="9.4452214" inkscape:window-width="2154" inkscape:window-height="1206" inkscape:window-x="0" inkscape:window-y="0" inkscape:window-maximized="1" inkscape:current-layer="svg2">
    <inkscape:grid id="grid2" units="px" originx="0" originy="0" spacingx="1" spacingy="1" empcolor="#0000ff" empopacity="0.25098039" color="#0000ff" opacity="0.1254902" empspacing="5" enabled="true" visible="true" />
  </sodipodi:namedview>
  <path style="-inkscape-font-specification:'Andale Mono, Normal';stroke:#ffffff;stroke-width:3;stroke-linecap:round;stroke-linejoin:round;stroke-dasharray:none;stroke-opacity:0.5;paint-order:stroke fill markers" d="M 7.4957881,1.499938 L 7.1417881,1.852938 L 1.4997881,7.497938 H 4.2597881 V 11.489938 H 10.731788 V 7.497938 H 13.491788 Z M 7.4957881,2.913938 L 11.077788,6.497938 H 9.7317881 V 10.489938 H 5.2597881 V 6.497938 H 3.9137881 Z M 7.6057881,4.918938 C 7.3397881,4.918938 6.9207881,4.900938 6.6307881,5.034938 L 6.3767881,5.151938 L 6.4767881,5.413938 L 6.6967881,5.993938 L 6.9917881,5.853938 C 7.2017881,5.751938 7.5057881,5.807938 7.5847881,5.807938 C 7.7047881,5.807938 7.7567881,5.832938 7.7907881,5.861938 V 5.863938 H 7.7917881 C 7.8197881,5.886938 7.8327881,5.903938 7.8327881,5.998938 C 7.8327881,6.048938 7.8227881,6.085938 7.7997881,6.129938 A 0.603,0.603 0 0 1 7.6617881,6.289938 L 7.6597881,6.291938 L 7.3627881,6.559938 C 7.1327881,6.765938 7.0147881,7.072938 7.0147881,7.399938 V 7.829938 H 7.9187881 V 7.402938 C 7.9187881,7.338938 7.9287881,7.296938 7.9327881,7.282938 A 0.165,0.165 0 0 1 7.9597881,7.229938 C 7.9497881,7.243938 8.0427881,7.145938 8.1827881,7.027938 L 8.1847881,7.025938 C 8.5517881,6.715938 8.7887881,6.373938 8.7887881,5.985938 C 8.7887881,5.672938 8.6787881,5.373938 8.4527881,5.182938 C 8.2297881,4.994938 7.9337881,4.918938 7.6067881,4.918938 Z M 7.5067881,8.422938 A 0.6,0.6 0 0 0 7.0947881,8.594938 A 0.605,0.605 0 0 0 6.9307881,9.006938 C 6.9307881,9.153938 6.9897881,9.310938 7.0887881,9.420938 L 7.0907881,9.422938 H 7.0927881 A 0.59,0.59 0 0 0 7.5067881,9.606938 A 0.592,0.592 0 0 0 7.9227881,9.422938 A 0.607,0.607 0 0 0 7.9187881,8.594938 A 0.597,0.597 0 0 0 7.5067881,8.422938 Z" color="#000000" id="path2" />
</svg>

<svg width="14.992" height="12.99" xmlns="http://www.w3.org/2000/svg">
  <path style="-inkscape-font-specification:&quot;Andale Mono, Normal&quot;"
    d="m7.496 1.5-.354.353L1.5 7.498h2.76v3.992h6.472V7.498h2.76Zm0 1.414 3.582 3.584H9.732v3.992H5.26V6.498H3.914Zm.11 2.005c-.266 0-.685-.018-.975.116l-.254.117.1.262.22.58.295-.14c.21-.102.514-.046.593-.046.12 0 .172.025.206.054v.002h.001c.028.023.041.04.041.135 0 .05-.01.087-.033.131a.603.603 0 0 1-.138.16l-.002.002-.297.268c-.23.206-.348.513-.348.84v.43h.904v-.427c0-.064.01-.106.014-.12a.165.165 0 0 1 .027-.053c-.01.014.083-.084.223-.202l.002-.002c.367-.31.604-.652.604-1.04 0-.313-.11-.612-.336-.803-.223-.188-.519-.264-.846-.264Zm-.099 3.504a.6.6 0 0 0-.412.172.605.605 0 0 0-.164.412c0 .147.059.304.158.414l.002.002h.002a.59.59 0 0 0 .414.184.592.592 0 0 0 .416-.184.607.607 0 0 0-.004-.828.597.597 0 0 0-.412-.172Z"
    color="#000" fill="none" stroke="#fff" stroke-width="3" stroke-opacity=".5"
    stroke-linejoin="round" stroke-linecap="round" />
  <path style="-inkscape-font-specification:&quot;Andale Mono, Normal&quot;;-inkscape-stroke:none"
    d="m7.496 1.5-.354.353L1.5 7.498h2.76v3.992h6.472V7.498h2.76Zm0 1.414 3.582 3.584H9.732v3.992H5.26V6.498H3.914Zm.11 2.005c-.266 0-.685-.018-.975.116l-.254.117.1.262.22.58.295-.14c.21-.102.514-.046.593-.046.12 0 .172.025.206.054v.002h.001c.028.023.041.04.041.135 0 .05-.01.087-.033.131a.603.603 0 0 1-.138.16l-.002.002-.297.268c-.23.206-.348.513-.348.84v.43h.904v-.427c0-.064.01-.106.014-.12a.165.165 0 0 1 .027-.053c-.01.014.083-.084.223-.202l.002-.002c.367-.31.604-.652.604-1.04 0-.313-.11-.612-.336-.803-.223-.188-.519-.264-.846-.264Zm-.099 3.504a.6.6 0 0 0-.412.172.605.605 0 0 0-.164.412c0 .147.059.304.158.414l.002.002h.002a.59.59 0 0 0 .414.184.592.592 0 0 0 .416-.184.607.607 0 0 0-.004-.828.597.597 0 0 0-.412-.172Z"
    color="#000" />
</svg>
